images/pig-scheme/koreyka.svg

<svg width="264" height="135" viewBox="0 0 264 135" fill="none" xmlns="http://www.w3.org/2000/svg">
<path d="M262.84 75.48C262.73 77.56 262.56 79.62 262.32 81.65V81.66C261.26 90.68 258.86 98.99 254.25 104.89C251.9 107.9 249.09 110.11 245.76 111.5C245.7 111.53 245.64 111.54 245.54 111.58C245.43 111.63 245.33 111.67 245.22 111.71C245.16 111.74 245.11 111.76 245.05 111.78L245.01 111.79C244.97 111.8 244.94 111.81 244.9 111.83C244.8 111.88 244.7 111.92 244.59 111.95C244.54 111.98 244.48 112 244.42 112.01C244.37 112.04 244.31 112.05 244.26 112.07C244.12 112.11 244 112.15 243.86 112.21C241.37 112.98 238.62 113.39 235.57 113.39C234.03 113.39 232.33 113.42 230.48 113.49C228.65 113.55 226.67 113.65 224.55 113.77C218.6 114.11 211.55 114.68 203.56 115.41C201.54 115.6 199.46 115.79 197.32 116C190.68 116.64 183.48 117.37 175.8 118.17C173.73 118.39 171.63 118.61 169.49 118.83C164.19 119.39 158.68 119.98 152.99 120.58C151.29 120.76 149.58 120.94 147.85 121.12C145.77 121.35 143.66 121.57 141.52 121.8C134.55 122.54 127.33 123.3 119.9 124.07C117.82 124.28 115.73 124.5 113.61 124.71C106.61 125.43 99.43 126.16 92.1 126.87C90.03 127.08 87.94 127.28 85.83 127.49C78.84 128.15 71.71 128.82 64.49 129.48C62.43 129.66 60.37 129.84 58.29 130.03C51.32 130.64 44.27 131.24 37.16 131.81C35.12 131.98 33.07 132.14 31.02 132.3C24.1 132.84 17.14 133.36 10.13 133.84C8.11 133.98 6.09 134.12 4.06 134.26C2.71 134.34 1.35 134.43 0 134.52C2.74 123.99 11.19 112.08 20.89 98.08C24.64 92.67 28.58 86.94 32.45 80.87C39.87 69.24 47.03 56.32 52.14 41.83C53.09 39.13 53.97 36.38 54.76 33.56C56.9 26.06 58.43 18.16 59.14 9.83C59.32 7.85 59.44 5.84 59.51 3.81001C59.56 2.55001 59.59 1.28 59.6 0C60.78 0.06 61.96 0.120002 63.13 0.190002C64.92 0.280002 66.71 0.380003 68.49 0.480003C74.61 0.840003 80.68 1.22 86.68 1.64C88.44 1.77 90.19 1.9 91.94 2.03C97.99 2.47 103.97 2.95 109.87 3.45C111.61 3.6 113.34 3.75 115.07 3.9C121.05 4.44 126.95 4.99 132.75 5.57C134.47 5.75 136.18 5.92 137.88 6.09C139.23 6.24 140.57 6.38 141.91 6.52L153.87 7.87C154.34 7.92 154.82 7.98 155.29 8.03C156.99 8.23 158.67 8.43001 160.34 8.63C166.28 9.34 172.02 10.05 177.55 10.77C179.23 10.99 180.9 11.21 182.54 11.43C188.44 12.22 194.09 13.02 199.51 13.81C201.17 14.06 202.81 14.31 204.42 14.55C210.25 15.44 215.8 16.34 221.08 17.24C222.71 17.51 224.32 17.79 225.9 18.07C231.67 19.09 237.09 20.11 242.18 21.14C243.77 21.46 245.33 21.79 246.86 22.11C250.65 22.91 254.25 23.71 257.66 24.51L257.84 26.41C257.86 26.49 258.15 27.68 258.58 29.74C258.85 31.01 259.17 32.6 259.51 34.46C260.33 38.85 261.29 44.74 261.99 51.33C262.17 53.01 262.33 54.74 262.47 56.5C262.96 62.61 263.18 69.12 262.84 75.48Z" fill="#C21921"/>
<path fill-rule="evenodd" clip-rule="evenodd" d="M68.4901 0.479942L59.1401 9.82994C59.3201 7.84994 59.4401 5.83994 59.5101 3.80994L63.1301 0.189941C64.9201 0.279941 66.7101 0.379942 68.4901 0.479942Z" fill="#9E1B1E"/>
<path fill-rule="evenodd" clip-rule="evenodd" d="M91.9401 2.02989L52.1401 41.8299C53.0901 39.1299 53.9701 36.3799 54.7601 33.5599L86.6801 1.63989C88.4401 1.76989 90.1901 1.89989 91.9401 2.02989Z" fill="#9E1B1E"/>
<path fill-rule="evenodd" clip-rule="evenodd" d="M115.07 3.89995L20.8901 98.0799C24.6401 92.6699 28.5801 86.9399 32.4501 80.8699L109.87 3.44995C111.61 3.59995 113.34 3.74995 115.07 3.89995Z" fill="#9E1B1E"/>
<path fill-rule="evenodd" clip-rule="evenodd" d="M137.88 6.08983L10.1301 133.84C8.11007 133.98 6.09006 134.12 4.06006 134.26L132.75 5.56982C134.47 5.74982 136.18 5.91983 137.88 6.08983Z" fill="#9E1B1E"/>
<path fill-rule="evenodd" clip-rule="evenodd" d="M160.34 8.63004L37.16 131.81C35.12 131.98 33.07 132.14 31.02 132.3L155.29 8.03003C156.99 8.23003 158.67 8.43004 160.34 8.63004Z" fill="#9E1B1E"/>
<path fill-rule="evenodd" clip-rule="evenodd" d="M182.54 11.43L64.4901 129.48C62.4301 129.66 60.37 129.84 58.29 130.03L177.55 10.77C179.23 10.99 180.9 11.21 182.54 11.43Z" fill="#9E1B1E"/>
<path fill-rule="evenodd" clip-rule="evenodd" d="M204.42 14.5501L92.1 126.87C90.03 127.08 87.9401 127.28 85.8301 127.49L199.51 13.8101C201.17 14.0601 202.81 14.3101 204.42 14.5501Z" fill="#9E1B1E"/>
<path fill-rule="evenodd" clip-rule="evenodd" d="M225.9 18.07L119.9 124.07C117.82 124.28 115.73 124.5 113.61 124.71L221.08 17.24C222.71 17.51 224.32 17.79 225.9 18.07Z" fill="#9E1B1E"/>
<path fill-rule="evenodd" clip-rule="evenodd" d="M246.86 22.1099L147.85 121.12C145.77 121.35 143.66 121.57 141.52 121.8L242.18 21.1399C243.77 21.4599 245.33 21.7899 246.86 22.1099Z" fill="#9E1B1E"/>
<path fill-rule="evenodd" clip-rule="evenodd" d="M259.51 34.46L175.8 118.17C173.73 118.39 171.63 118.61 169.49 118.83L258.58 29.74C258.85 31.01 259.17 32.6 259.51 34.46Z" fill="#9E1B1E"/>
<path fill-rule="evenodd" clip-rule="evenodd" d="M262.47 56.4998L203.56 115.41C201.54 115.6 199.46 115.79 197.32 116L261.99 51.3298C262.17 53.0098 262.33 54.7398 262.47 56.4998Z" fill="#9E1B1E"/>
<path fill-rule="evenodd" clip-rule="evenodd" d="M262.84 75.48C262.73 77.56 262.56 79.62 262.32 81.65V81.66L230.48 113.49C228.65 113.55 226.67 113.65 224.55 113.77L262.84 75.48Z" fill="#9E1B1E"/>
</svg>

<svg width="264" height="135" fill="none" xmlns="http://www.w3.org/2000/svg"><path d="M262.84 75.48a95.58 95.58 0 01-.52 6.17v.01c-1.06 9.02-3.46 17.33-8.07 23.23-2.35 3.01-5.16 5.22-8.49 6.61-.06.03-.12.04-.22.08-.11.05-.21.09-.32.13-.06.03-.11.05-.17.07l-.04.01c-.04.01-.07.02-.11.04-.1.05-.2.09-.31.12-.05.03-.11.05-.17.06-.05.03-.11.04-.16.06-.14.04-.26.08-.4.14-2.49.77-5.24 1.18-8.29 1.18-1.54 0-3.24.03-5.09.1-1.83.06-3.81.16-5.93.28-5.95.34-13 .91-20.99 1.64-2.02.19-4.1.38-6.24.59-6.64.64-13.84 1.37-21.52 2.17-2.07.22-4.17.44-6.31.66-5.3.56-10.81 1.15-16.5 1.75-1.7.18-3.41.36-5.14.54-2.08.23-4.19.45-6.33.68-6.97.74-14.19 1.5-21.62 2.27-2.08.21-4.17.43-6.29.64-7 .72-14.18 1.45-21.51 2.16-2.07.21-4.16.41-6.27.62-6.99.66-14.12 1.33-21.34 1.99-2.06.18-4.12.36-6.2.55-6.97.61-14.02 1.21-21.13 1.78a2200.817 2200.817 0 01-27.03 2.03l-6.07.42c-1.35.08-2.71.17-4.06.26 2.74-10.53 11.19-22.44 20.89-36.44 3.75-5.41 7.69-11.14 11.56-17.21 7.42-11.63 14.58-24.55 19.69-39.04.95-2.7 1.83-5.45 2.62-8.27 2.14-7.5 3.67-15.4 4.38-23.73.18-1.98.3-3.99.37-6.02.05-1.26.08-2.53.09-3.81 1.18.06 2.36.12 3.53.19 1.79.09 3.58.19 5.36.29 6.12.36 12.19.74 18.19 1.16l5.26.39a1504.857 1504.857 0 0123.13 1.87c5.98.54 11.88 1.09 17.68 1.67 1.72.18 3.43.35 5.13.52 1.35.15 2.69.29 4.03.43l11.96 1.35c.47.05.95.11 1.42.16 1.7.2 3.38.4 5.05.6 5.94.71 11.68 1.42 17.21 2.14a1467.61 1467.61 0 0121.96 3.04c1.66.25 3.3.5 4.91.74 5.83.89 11.38 1.79 16.66 2.69 1.63.27 3.24.55 4.82.83 5.77 1.02 11.19 2.04 16.28 3.07 1.59.32 3.15.65 4.68.97 3.79.8 7.39 1.6 10.8 2.4l.18 1.9c.02.08.31 1.27.74 3.33.27 1.27.59 2.86.93 4.72.82 4.39 1.78 10.28 2.48 16.87.18 1.68.34 3.41.48 5.17.49 6.11.71 12.62.37 18.98z" fill="#C21921"/><path fill-rule="evenodd" clip-rule="evenodd" d="M68.49.48l-9.35 9.35c.18-1.98.3-3.99.37-6.02L63.13.19c1.79.09 3.58.19 5.36.29zm23.45 1.55l-39.8 39.8c.95-2.7 1.83-5.45 2.62-8.27L86.68 1.64l5.26.39zm23.13 1.87L20.89 98.08c3.75-5.41 7.69-11.14 11.56-17.21l77.42-77.42 5.2.45zm22.81 2.19L10.13 133.84l-6.07.42L132.75 5.57c1.72.18 3.43.35 5.13.52zm22.46 2.54L37.16 131.81c-2.04.17-4.09.33-6.14.49L155.29 8.03c1.7.2 3.38.4 5.05.6zm22.2 2.8L64.49 129.48c-2.06.18-4.12.36-6.2.55L177.55 10.77c1.68.22 3.35.44 4.99.66zm21.88 3.12L92.1 126.87c-2.07.21-4.16.41-6.27.62L199.51 13.81c1.66.25 3.3.5 4.91.74zm21.48 3.52l-106 106c-2.08.21-4.17.43-6.29.64L221.08 17.24c1.63.27 3.24.55 4.82.83zm20.96 4.04l-99.01 99.01c-2.08.23-4.19.45-6.33.68L242.18 21.14c1.59.32 3.15.65 4.68.97zm12.65 12.35l-83.71 83.71c-2.07.22-4.17.44-6.31.66l89.09-89.09c.27 1.27.59 2.86.93 4.72zm2.96 22.04l-58.91 58.91c-2.02.19-4.1.38-6.24.59l64.67-64.67c.18 1.68.34 3.41.48 5.17zm.37 18.98a95.58 95.58 0 01-.52 6.17v.01l-31.84 31.83c-1.83.06-3.81.16-5.93.28l38.29-38.29z" fill="#9E1B1E"/></svg>
